X:1
T:Cinq Poëmes de Baudelaire
T:La Mort des Amants
T:5. La Mort des Amants
T:Claude Debussy
T:Charles Baudelaire
T:Cinq Poëmes de Baudelaire
T:OpenScore (CC0)
T:OpenScore (CC0)
T:OpenScore (CC0)
T:OpenScore (CC0)
C:Claude Debussy
Z:Charles Baudelaire
Z:OpenScore (CC0)
%%score 1 { ( 2 4 5 ) | ( 3 6 7 ) }
L:1/8
Q:1/4=70
M:3/4
K:Gb
V:1 treble nm="Chant\nVoice"
V:2 treble nm="Piano"
V:4 treble 
V:5 treble 
V:3 treble 
V:6 treble 
V:7 treble 
V:1
"^Andante""^Andante""^Andante" z6 | z6 | z6 | z4!p! (D E | G A c B (3A B G | %5
w: |||Nous au-|\- rons des lits pleins d'o- deurs lé-|
 F2-) (3F z (F (3E ^C E | F2 =C C _C C | B,4) z2 | z2!p! (A B =B =c | f e (3=d _d B A G) | %10
w: gè- res, Des di- vans pro-|fonds com- me des tom-|\- beaux,|Et d'é- tran- ges|fleurs sur des é- ta- gè- res,|
"^dim." z (__E (3_F E F (3G A B | =B =c F2) z2 | z3/2!p! (_E/ (3c B A (3e c A | %13
w: E- clo- ses pour nous sous des|cieux plus beaux.|U- sant à l'en- vi leurs cha-|
 G/ D/ =D- D/ D/) (E/ E/ G/ G/ A/ B/ |!<(! (3c/ d/ e/ e-!<)! e) (c (3g f e | %15
w: \- leurs der- niè- * res, Nos deux coeurs se- ront deux|vas- tes flam- beaux, _ Qui ré- flé- chi-|
!<(! d B (3F E D D B,!<)! | D/ E/ F/ A/!<(! A d (3=d ^c d!<)! |!>(! e6)!>)! || %18
w: \- ront leurs dou- bles lu- mi- ères|Dans nos deux es- prits ces mi- roirs ju-|meaux|
[K:E]!p! z !tenuto!G !tenuto!G2 !tenuto!G !tenuto!G | %19
w: Un soir fait de|
 !tenuto!B2 !tenuto!B !tenuto!B !tenuto!B !tenuto!B | B2- B z"^cresc." (B g | g a c2 =d ^d | %22
w: rose et de bleu mys-|ti- que, Nous é-|chan- ge- rons un é-|
 (3d!>(!f e G2-) G!>)! z | z2!p! (G A ^A B |"^dim." =d2 c2 B2 | f4 c2 | =c4) z2 | z6 | %28
w: clair * u- ni- que|Comme un long san-|\- glot tout char-|gé d'a-|dieu.||
[Q:1/4=67] z6[Q:1/4=65] ||[K:C][Q:1/4=72]"^Un poco più mosso" z6 | z6 | z6 |[K:C] z4 G G | %33
w: ||||Et plus|
 G3/2 G/ _B2- B z | z (c2 c d d | _e2 ^F) z z (G |"^cresc." c4 ^G A | c4) (d2 | _e4 B c | %39
w: tard un an- ge,|en- trou- vrant les|por- tes, Vien-|dra ra- ni-|mer, fi-|\- dèle et joy-|
 (^f4 g2)) ||[K:Gb]!mp! z"^molto espress." ((a e2) _f=f | f g B2) (c =c | (3=ce d F2 ED | D6-) | %44
w: eux, _|Les * mi- *|roirs ter- nis et les|flam- * mes mor- * *|\- tes.|
 D2 z2 z2 | z6[Q:1/4=68][Q:1/4=66] | z6[Q:1/4=64][Q:1/4=62] |[Q:1/4=60] z6 |] %48
w: _||||
V:2
!pp! z/ ([Bd][GB]/ [dbd']2 [Bgb]2) | z/ bc'/ x4 |!<(! z/ (fg/ =A2!<)! B2) | %3
!p! ([Fce]2"_dim." F3 E | [B,D]6) | z/!<(! (=B=c/!<)! c2)!pp! !arpeggio!!tenuto!^C2 | %6
!p! z/!<(! (=B=c/ [Cc]2-)!<)! [Cc]/([Dd][=D=d]/ | [=D=d][Ee]- [Ee][_D_d]- [Dd][Gg]) | %8
!p! ([Bgb]3 [GB][FA][EG]) |!p! ([Bgb]3 [GB][FA][EG]) |"_dim." B6- |!p! B2- (BA [fa]2) | %12
"^m.d."!p! z/!<(! ([ce][Ac]/ ba!<)!!>(! ge!>)! | %13
 [Gd][B,GB]- [B,GB][B,EG]-!<(! [B,EG]!arpeggio![=CGBf])!<)! | z/ ([_ce][Ac]/ ba ge) | %15
!<(! (dB- BF- FE)!<)! |!<(! fd- dA- A=G!<)! | ((([Bb] [Aa]2 [Bb]2 [Aa]))) ||[K:E]!pp! [Beb]6 | %19
 ([B,A]6 | G6) | [Ee] [^E^e]2 [Ff][Aa][Gg] |!>(! [Ff] [Ee]2!>)! [G,G]2 ([Gg] | %23
!p! [Ff] [Ee]2 [G,G]2) ([=d=d'] |"_dim." [cc'] [Bb]2 [=D=d]2) ([d=d'] | %25
 [cc'] [Bb]2 [E=GB]2) ([ff'] |!p! [ee']2 [dd']4) |!p! ([Ee]2 [Dd]4) | %28
!pp! z !tenuto!.=C2 !tenuto!.C2 !tenuto!.C ||[K:C]!pp! z/ ([EG][CE]/ [Geg]2 [Ece]2) | %30
 z/ (ef/ A2 ^G2) | z/ (Bc/ ^D2 E2) |[K:C] z/ ([ce][Ac]/!p! [ec'e']2) z/ [Bb][Gg]/ | %33
 z/ ([^G_B][_EG]/ [Bg_b]2 [Geg]2) | z/ (g_a/ c2 =B2) | z/ (d_e/ ^F2 G2) | %36
"_cresc." z/ ([_eg][ce]/ [_e'g'][c'e']) z2 | [Cc]4 [Dd]2 | z/ ([ac'][^fa]/ [a'c''][^f'a']) z2 | %39
"^m.g." !arpeggio!a!8va(! ([aa']2 [^g^g']2 [aa']) || %40
[K:Gb]!mp! ([bb'][c'c''] [eae']2 [_f_f'][=f=f']- | %41
 (3[ff'][aa'][gg'] [bg'b']2)!8va)! ([cc'][=c=c']- |!p! (3[=c=c'][ee'][dd'] [F_cf]2 [EGe][DFd]) | %43
!p! (3([=c=c'][ee'][dd'] [F_cf]2 [EGe][DFd]) |!pp! z/ ([Bd][GB]/ [bd']2 [gb]2) | %45
!pp!"^morendo e ritenuto" z/ ([Bd][GB]/- [GB][bd']- [bd']2) | %46
!pp! z/ ([Bd][GB]/- [GB][bd']- [bd']2) |!ppp! x2 !fermata![bg'b']4 |] %48
V:3
 D__E- E4 | (BA- A4) | ([=B,=D][=CE]- [CE]2) [D_F]2 |[K:bass] z/ (=G,A,/ A,,4) | D,6 | %5
 z/ (=B,=C/ C2) [^C,=G,]2 | z/ =B,=C/ x2 [F,_C]2 | z2 (G,2 B,2) | z/ FG/!<(! B,2 =B,!<)!=C | %9
 z/ FG/!<(! _B,2 =B,!<)!=C | z !tenuto!__E- (3:2:2(E2 !tenuto!_D) !tenuto!_E2 | %11
 [A,,_E,]2 [D,,A,,]4 |[I:staff -1] (E[I:staff +1]=E F2 _EC | B,2) x2 x2 | %14
[I:staff -1] (E[I:staff +1]=E F2 _EC) | B,6 | D4 =D2 | [C_G]6 ||[K:E] (!arpeggio!F E2 F2 E) | %19
 (C, D,2 C,2 D,) | C, D,2- D,3 | A,2 C2 =D^D | (!arpeggio!B,,2 ^B,,2 C,2 | %23
 !arpeggio!=D,2 ^D,2 E,2) | [B,=D]6 | [E=G]6 | [=G,=C-E]2 [F,CD]4 | [=G,=C-]2 [F,C]4 | [D,F,]6 || %29
[K:C]"^m.d." (B, A,2 C,2 C | B,2) x4 | (B,A, ^F,2 G,2) | %32
[K:C] z/4!<(! A,,/4D,/4^F,/4A,/4C/4D/4E/4!<)! x2"^m.d." ([=F,B,=F][D,D]) | (D C2 _E,2 _E | D2) x4 | %35
 G,2 =A,2 _B,2 | [F,,=C,A,]4 [D,,A,,^F,]2 | z/ [_G,_B,][_E,G,]/ x4 | [D,,A,,^F,]4 [=F,A,]2 | %39
 !>![B,,^F,A,]2[K:treble] !>!B,2 [GA^ce]2 || %40
[K:Gb]"^molto espress." !arpeggio![Ace]2 [EA]2 !arpeggio![__EAc]2 | %41
[K:bass] !arpeggio![B,DB]2 !arpeggio![B,EG]2 !arpeggio![__B,EG]2 | z (A,EDCA,) | z (A,EDCA,) | %44
"^m.d." ([D,B,D][__E,B,__E]- [E,B,E]2 [_E,B,_E]2) |"^m.d." (([_F,B,_F]4 [__E,B,__E]2)) | %46
"^m.d." (([_F,B,_F]4 [__E,B,__E]2)) |"^m.d.""_FIN" [D,B,D]6 |] %48
V:4
 x6 | (c4 B2) | A=A G2 =G2 | x2 [F,C]4 | x6 | E4 x2 | E4 x2 | _B6 | x6 | x6 | [=CG]6- | %11
 ([=CG]2 [A,F]4) | x2 [ce]2 [Ac][FA] | x6 | x2 [ce]2 [Ac][FA] | GD- D4 | AF- F4 | e6 ||[K:E] x6 | %19
 (C D2 C2 D) | (C D2 C2!<(! D) | c4 =d^d!<)! | B6 | B6 | g6 | =g6 | ([Bb] [Aa]2) =C2 =c | %27
 B A2 =C2 =c | x6 ||[K:C] x6 | [FA]2 [B,D]4 | C4 ^C2 |[K:C] !arpeggio![A,=CEA]4 x2 | [g_bg']2 x4 | %34
 [_Ac]2 [DF]4 | [_E-G]2 E2 =E2 | !arpeggio![C_EGc]2 E2 [CD]2 | [_G_B]4 x2 | %38
 !arpeggio![C^FA_e]2 x2 [_E=F]2 | !arpeggio!^C2!8va(! x4 ||[K:Gb] e'2 x2 c'2 | d'2 x2!8va)! g2 | %42
 f2 x4 | f2 x4 | x6 | x6 | x6 | x2 [Gd]4 |] %48
V:5
 x6 | e2 e2 =d2 | x6 | x6 | x6 | x6 | x3!>(! x3!>)! | x6 | x6 | x6 | x6 | x6 | x6 | x6 | x6 | x6 | %16
 x6 | x6 ||[K:E] x6 | x6 | z2 z c2 d | x6 | x6 | x6 | x6 | x6 | x6 | x6 | x6 ||[K:C] x6 | x6 | %31
 E2 x4 |[K:C] x2 [^FAc]2 x2 | x6 | x6 | x6 | x2 _EG ^GA | x2 [_G_B]2 x2 | x2 ^FA =Bc | %39
 !arpeggio![^FA^d]4!8va(! x2 ||[K:Gb] x6 | x4!8va)! x2 | x6 | x6 | x6 | x6 | x6 | x6 |] %48
V:6
 x6 | (E_F- F2 =F2) | x6 |[K:bass] z2 z2 (D,,2 | [G,,,G,,]6) | A,4 !arpeggio![=A,,,=E,,=A,,]2 | %6
 =A,4 [D,,_A,,]2 | [G,,,G,,]6 | (E,,4 [A,,E,]2) | (E,,4 [A,,E,]2) | __E,,4 z2 | x6 | D,,6 | %13
 (D,=D,- D,E,- E,[A,,E,]) | D,,6 | (_F,=F, G,2 =G,2) | (A,=A, B,2 =B,2) | (E2 E,2 A,,2) || %18
[K:E] !arpeggio![G,,E,B,]6 | [F,,A,]6 | G,,6 | ([F,,B,,]4 [B,,A,]2 | !arpeggio![E,,,E,,]6) | %23
 !arpeggio![E,,,E,,]6 | ^E,2 F,2 G,2 | A,2 B,CE=G | x6 | x6 | z2 z2 ^G,,2 ||[K:C] [G,,,G,,]6 | %30
 (G,,2 F,,2 E,,2 | A,,4 _B,,2) |[K:C] !arpeggio![D,,A,,^F,]4 G,,2 | [_B,,,_B,,]6 | %34
 (_B,,2 _A,,2 G,,2 | C,4 ^C,2) | x6 | [_A,,,_A,,]6 | x6 | x4[K:treble] !>![A,E]2 || %40
[K:Gb] (!arpeggio![A,E]2 G,2 !arpeggio!_F,__E,) | %41
[K:bass] (!arpeggio!D,2 !arpeggio!=C,2 !arpeggio!_C,__B,, | [D,,A,,]6) | [D,,A,,]6 | [G,,,G,,]6 | %45
 [G,,,G,,]6 | [G,,,G,,]6 | [E,,,G,,]6 |] %48
V:7
 x6 | x6 | x6 |[K:bass] x6 | x6 | x6 | x6 | x6 | x6 | x6 | x6 | x4 z D | x6 | x6 | x6 | x6 | x6 | %17
 x6 ||[K:E] x6 | x6 | B,6 | x6 | x6 | x6 | =E,,6 | A,,6 | x6 | x6 | x6 ||[K:C] [C,E,]6 | x6 | x6 | %32
[K:C] x6 | [_E,G,]6 | x6 | x6 | x6 | x6 | x6 | x2[K:treble] x4 ||[K:Gb] x2 CD x2 |[K:bass] x6 | %42
 x2 (C2 A,D,) | x2 (C2 A,D,) | x6 | x6 | x6 | x6 |] %48

